dist/launcher.svg

<?xml version="1.0" encoding="UTF-8"?>
<svg width="40px" height="40px" viewBox="0 0 40 40" version="1.1" xmlns="http://www.w3.org/2000/svg" xmlns:xlink="http://www.w3.org/1999/xlink">
    <!-- Generator: Sketch 52.4 (67378) - http://www.bohemiancoding.com/sketch -->
    <title>launcher-40</title>
    <desc>Created with Sketch.</desc>
    <defs>
        <path d="M9.6145695,0 L30.3854305,0 C33.7286258,-2.25694893e-16 34.9409492,0.348096042 36.1631714,1.00174764 C37.3853936,1.65539924 38.3446008,2.61460639 38.9982524,3.83682861 C39.651904,5.05905083 40,6.27137423 40,9.6145695 L40,30.3854305 C40,33.7286258 39.651904,34.9409492 38.9982524,36.1631714 C38.3446008,37.3853936 37.3853936,38.3446008 36.1631714,38.9982524 C34.9409492,39.651904 33.7286258,40 30.3854305,40 L9.6145695,40 C6.27137423,40 5.05905083,39.651904 3.83682861,38.9982524 C2.61460639,38.3446008 1.65539924,37.3853936 1.00174764,36.1631714 C0.348096042,34.9409492 1.50463262e-16,33.7286258 -2.58960077e-16,30.3854305 L0,9.6145695 C-1.50463262e-16,6.27137423 0.348096042,5.05905083 1.00174764,3.83682861 C1.65539924,2.61460639 2.61460639,1.65539924 3.83682861,1.00174764 C5.05905083,0.348096042 6.27137423,2.25694893e-16 9.6145695,-3.88440115e-16 Z" id="path-1"></path>
    </defs>
    <g id="launcher-40" stroke="none" stroke-width="1" fill="none" fill-rule="evenodd">
        <g id="launcher">
            <g id="base">
                <mask id="mask-2" fill="white">
                    <use xlink:href="#path-1"></use>
                </mask>
                <use id="Mask" fill="#FF82AB" fill-rule="nonzero" xlink:href="#path-1"></use>
            </g>
            <g id="Group" stroke-width="1" fill-rule="evenodd" transform="translate(7.421875, 8.750000)" fill="#FFFFFF">
                <g id="Group-Copy" transform="translate(18.534167, 7.872465) rotate(-330.000000) translate(-18.534167, -7.872465) translate(15.018542, 0.841215)" fill-rule="nonzero">
                    <path d="M-3.51090397,10.5254443 C-3.51090397,6.65142066 -0.368760376,3.51090397 3.50727017,3.51090397 C7.38330073,3.51090397 10.5254443,6.65142066 10.5254443,10.5254443" id="Path-Copy-2" transform="translate(3.507270, 7.018174) scale(-1, 1) rotate(-270.000000) translate(-3.507270, -7.018174) "></path>
                </g>
                <path d="M12.0827671,17.816863 L12.0820027,21.2260712 C11.3442877,21.8071384 10.4135129,22.1539074 9.40189329,22.1541343 C7.0074366,22.1546713 5.0667813,20.2135133 5.06731834,17.8184365 L5.06967227,7.32060703 L5.07124575,0.303341335 C8.94577113,0.302472326 12.0859901,3.44350472 12.0851211,7.31903355 L12.0827671,17.816863 Z" id="Path-Copy-3" fill-rule="nonzero" transform="translate(8.576220, 11.228738) rotate(-30.000000) translate(-8.576220, -11.228738) "></path>
            </g>
        </g>
    </g>
</svg>

<svg width="40" height="40" xmlns="http://www.w3.org/2000/svg" xmlns:xlink="http://www.w3.org/1999/xlink"><defs><path d="M9.615 0h20.77c3.344 0 4.556.348 5.778 1.002a6.815 6.815 0 0 1 2.835 2.835C39.652 5.059 40 6.27 40 9.615v20.77c0 3.344-.348 4.556-1.002 5.778a6.815 6.815 0 0 1-2.835 2.835C34.941 39.652 33.73 40 30.385 40H9.615c-3.344 0-4.556-.348-5.778-1.002a6.815 6.815 0 0 1-2.835-2.835C.348 34.941 0 33.73 0 30.385V9.615C0 6.27.348 5.059 1.002 3.837a6.815 6.815 0 0 1 2.835-2.835C5.059.348 6.27 0 9.615 0z" id="a"/></defs><g fill="none"><use fill="#FF82AB" xlink:href="#a"/><path d="M32.502 12.283a7.016 7.016 0 0 0-9.584 2.57 7.016 7.016 0 0 0 2.566 9.586m-3.155-.509l1.704 2.954a4.334 4.334 0 0 1-7.779.556l-5.247-9.093L7.5 12.27a7.013 7.013 0 0 1 9.582 2.568l5.247 9.093z" fill="#FFF"/></g></svg>
